images/3246090.svg

<?xml version="1.0" encoding="UTF-8"?>
<svg xmlns="http://www.w3.org/2000/svg" xmlns:xlink="http://www.w3.org/1999/xlink" width="300pt" height="300pt" viewBox="0 0 300 300" version="1.1">
<defs>
<g>
<symbol overflow="visible" id="glyph0-0">
<path style="stroke:none;" d="M 0.453125 1.59375 L 0.453125 -6.34375 L 4.953125 -6.34375 L 4.953125 1.59375 Z M 0.953125 1.09375 L 4.453125 1.09375 L 4.453125 -5.84375 L 0.953125 -5.84375 Z M 0.953125 1.09375 "/>
</symbol>
<symbol overflow="visible" id="glyph0-1">
<path style="stroke:none;" d="M 0.890625 -6.5625 L 2.078125 -6.5625 L 4.984375 -1.078125 L 4.984375 -6.5625 L 5.84375 -6.5625 L 5.84375 0 L 4.65625 0 L 1.75 -5.484375 L 1.75 0 L 0.890625 0 Z M 0.890625 -6.5625 "/>
</symbol>
<symbol overflow="visible" id="glyph0-2">
<path style="stroke:none;" d="M 0.890625 -6.5625 L 1.765625 -6.5625 L 1.765625 -3.875 L 5 -3.875 L 5 -6.5625 L 5.890625 -6.5625 L 5.890625 0 L 5 0 L 5 -3.125 L 1.765625 -3.125 L 1.765625 0 L 0.890625 0 Z M 0.890625 -6.5625 "/>
</symbol>
<symbol overflow="visible" id="glyph0-3">
<path style="stroke:none;" d="M 3.546875 -5.953125 C 2.898438 -5.953125 2.382812 -5.710938 2 -5.234375 C 1.625 -4.753906 1.4375 -4.101562 1.4375 -3.28125 C 1.4375 -2.445312 1.625 -1.789062 2 -1.3125 C 2.382812 -0.832031 2.898438 -0.59375 3.546875 -0.59375 C 4.191406 -0.59375 4.703125 -0.832031 5.078125 -1.3125 C 5.453125 -1.789062 5.640625 -2.445312 5.640625 -3.28125 C 5.640625 -4.101562 5.453125 -4.753906 5.078125 -5.234375 C 4.703125 -5.710938 4.191406 -5.953125 3.546875 -5.953125 Z M 3.546875 -6.6875 C 4.460938 -6.6875 5.195312 -6.375 5.75 -5.75 C 6.300781 -5.132812 6.578125 -4.3125 6.578125 -3.28125 C 6.578125 -2.238281 6.300781 -1.410156 5.75 -0.796875 C 5.195312 -0.179688 4.460938 0.125 3.546875 0.125 C 2.617188 0.125 1.878906 -0.179688 1.328125 -0.796875 C 0.773438 -1.410156 0.5 -2.238281 0.5 -3.28125 C 0.5 -4.3125 0.773438 -5.132812 1.328125 -5.75 C 1.878906 -6.375 2.617188 -6.6875 3.546875 -6.6875 Z M 3.546875 -6.6875 "/>
</symbol>
</g>
</defs>
<g id="surface40721">
<rect x="0" y="0" width="300" height="300" style="fill:rgb(100%,100%,100%);fill-opacity:1;stroke:none;"/>
<path style="fill:none;stroke-width:1;stroke-linecap:butt;stroke-linejoin:miter;stroke:rgb(0%,0%,0%);stroke-opacity:1;stroke-miterlimit:10;" d="M 51.671875 171.355469 L 51.671875 171.355469 M 48.945312 172.605469 L 49.539062 173.464844 M 46.21875 173.859375 L 47.40625 175.574219 M 43.492188 175.113281 L 45.273438 177.683594 M 40.765625 176.363281 L 43.140625 179.792969 M 38.039062 177.617188 L 41.007812 181.902344 M 35.3125 178.867188 L 38.875 184.011719 M 33.246094 179.820312 L 37.253906 185.613281 "/>
<path style="fill:none;stroke-width:1.2;stroke-linecap:butt;stroke-linejoin:miter;stroke:rgb(0%,0%,0%);stroke-opacity:1;stroke-miterlimit:10;" d="M 51.671875 171.355469 L 50.039062 151.453125 "/>
<path style="fill:none;stroke-width:1.2;stroke-linecap:butt;stroke-linejoin:miter;stroke:rgb(0%,0%,0%);stroke-opacity:1;stroke-miterlimit:10;" d="M 69.722656 179.894531 L 51.671875 171.355469 "/>
<path style="fill:none;stroke-width:1.2;stroke-linecap:butt;stroke-linejoin:miter;stroke:rgb(0%,0%,0%);stroke-opacity:1;stroke-miterlimit:10;" d="M 50.039062 151.453125 L 66.460938 140.089844 "/>
<path style="fill:none;stroke-width:1.2;stroke-linecap:butt;stroke-linejoin:miter;stroke:rgb(0%,0%,0%);stroke-opacity:1;stroke-miterlimit:10;" d="M 66.460938 140.089844 L 84.511719 148.628906 "/>
<path style="fill:none;stroke-width:1;stroke-linecap:butt;stroke-linejoin:miter;stroke:rgb(0%,0%,0%);stroke-opacity:1;stroke-miterlimit:10;" d="M 66.460938 140.089844 L 66.460938 140.089844 M 66.738281 137.101562 L 65.699219 137.1875 M 67.019531 134.117188 L 64.9375 134.285156 M 67.296875 131.128906 L 64.179688 131.382812 M 67.574219 128.140625 L 63.417969 128.480469 M 67.851562 125.152344 L 62.65625 125.578125 M 68.132812 122.167969 L 61.894531 122.679688 M 68.34375 119.898438 L 61.320312 120.476562 "/>
<path style=" stroke:none;fill-rule:nonzero;fill:rgb(0%,0%,0%);fill-opacity:1;" d="M 84.511719 148.628906 L 82.628906 168.820312 L 89.652344 168.242188 Z M 84.511719 148.628906 "/>
<path style="fill:none;stroke-width:1.2;stroke-linecap:butt;stroke-linejoin:miter;stroke:rgb(0%,0%,0%);stroke-opacity:1;stroke-miterlimit:10;" d="M 84.511719 148.628906 L 100.933594 137.265625 "/>
<path style="fill:none;stroke-width:1.2;stroke-linecap:butt;stroke-linejoin:miter;stroke:rgb(0%,0%,100%);stroke-opacity:1;stroke-miterlimit:10;" d="M 86.140625 168.53125 L 77.933594 174.210938 "/>
<path style="fill:none;stroke-width:1.2;stroke-linecap:butt;stroke-linejoin:miter;stroke:rgb(0%,0%,0%);stroke-opacity:1;stroke-miterlimit:10;" d="M 77.933594 174.210938 L 69.722656 179.894531 "/>
<path style=" stroke:none;fill-rule:nonzero;fill:rgb(100%,100%,100%);fill-opacity:1;" d="M 79.140625 163.03125 L 93.140625 163.03125 L 93.140625 174.03125 L 79.140625 174.03125 Z M 79.140625 163.03125 "/>
<g style="fill:rgb(0%,0%,100%);fill-opacity:1;">
  <use xlink:href="#glyph0-1" x="79.140625" y="171.694336"/>
  <use xlink:href="#glyph0-2" x="86.118164" y="171.694336"/>
</g>
<path style="fill:none;stroke-width:1;stroke-linecap:butt;stroke-linejoin:miter;stroke:rgb(0%,0%,0%);stroke-opacity:1;stroke-miterlimit:10;" d="M 100.933594 137.265625 L 100.933594 137.265625 M 101.210938 134.277344 L 100.171875 134.363281 M 101.488281 131.292969 L 99.410156 131.460938 M 101.769531 128.304688 L 98.648438 128.558594 M 102.046875 125.316406 L 97.890625 125.65625 M 102.324219 122.332031 L 97.128906 122.757812 M 102.601562 119.34375 L 96.367188 119.855469 M 102.8125 117.074219 L 95.789062 117.652344 "/>
<path style="fill:none;stroke-width:1.2;stroke-linecap:butt;stroke-linejoin:miter;stroke:rgb(0%,0%,0%);stroke-opacity:1;stroke-miterlimit:10;" d="M 100.933594 137.265625 L 118.984375 145.804688 "/>
<path style="fill:none;stroke-width:1.2;stroke-linecap:butt;stroke-linejoin:miter;stroke:rgb(0%,0%,0%);stroke-opacity:1;stroke-miterlimit:10;" d="M 118.984375 145.804688 L 135.402344 134.441406 "/>
<path style="fill:none;stroke-width:1.2;stroke-linecap:butt;stroke-linejoin:miter;stroke:rgb(0%,0%,0%);stroke-opacity:1;stroke-miterlimit:10;" d="M 123.300781 148.53125 L 136.433594 139.441406 "/>
<path style="fill:none;stroke-width:1.2;stroke-linecap:butt;stroke-linejoin:miter;stroke:rgb(0%,0%,0%);stroke-opacity:1;stroke-miterlimit:10;" d="M 120.613281 165.707031 L 118.984375 145.804688 "/>
<path style="fill:none;stroke-width:1.2;stroke-linecap:butt;stroke-linejoin:miter;stroke:rgb(0%,0%,0%);stroke-opacity:1;stroke-miterlimit:10;" d="M 135.402344 134.441406 L 153.453125 142.980469 "/>
<path style="fill:none;stroke-width:1.2;stroke-linecap:butt;stroke-linejoin:miter;stroke:rgb(0%,0%,0%);stroke-opacity:1;stroke-miterlimit:10;" d="M 135.402344 134.441406 L 133.773438 114.539062 "/>
<path style="fill:none;stroke-width:1.2;stroke-linecap:butt;stroke-linejoin:miter;stroke:rgb(0%,0%,0%);stroke-opacity:1;stroke-miterlimit:10;" d="M 153.453125 142.980469 L 155.085938 162.882812 "/>
<path style="fill:none;stroke-width:1.2;stroke-linecap:butt;stroke-linejoin:miter;stroke:rgb(0%,0%,0%);stroke-opacity:1;stroke-miterlimit:10;" d="M 158.300781 144.585938 L 159.605469 160.507812 "/>
<path style="fill:none;stroke-width:1.2;stroke-linecap:butt;stroke-linejoin:miter;stroke:rgb(0%,0%,0%);stroke-opacity:1;stroke-miterlimit:10;" d="M 171.878906 135.28125 L 153.453125 142.980469 "/>
<path style="fill:none;stroke-width:1.2;stroke-linecap:butt;stroke-linejoin:miter;stroke:rgb(0%,0%,0%);stroke-opacity:1;stroke-miterlimit:10;" d="M 155.085938 162.882812 L 138.664062 174.246094 "/>
<path style=" stroke:none;fill-rule:nonzero;fill:rgb(0%,0%,0%);fill-opacity:1;" d="M 174.515625 167.484375 L 155.898438 159.453125 L 154.273438 166.3125 Z M 174.515625 167.484375 "/>
<path style="fill:none;stroke-width:1.2;stroke-linecap:butt;stroke-linejoin:miter;stroke:rgb(0%,0%,0%);stroke-opacity:1;stroke-miterlimit:10;" d="M 138.664062 174.246094 L 120.613281 165.707031 "/>
<path style="fill:none;stroke-width:1.2;stroke-linecap:butt;stroke-linejoin:miter;stroke:rgb(0%,0%,0%);stroke-opacity:1;stroke-miterlimit:10;" d="M 138.867188 169.144531 L 124.429688 162.3125 "/>
<path style="fill:none;stroke-width:1.2;stroke-linecap:butt;stroke-linejoin:miter;stroke:rgb(0%,0%,0%);stroke-opacity:1;stroke-miterlimit:10;" d="M 174.515625 167.484375 L 184.101562 185 "/>
<path style="fill:none;stroke-width:1.2;stroke-linecap:butt;stroke-linejoin:miter;stroke:rgb(0%,0%,0%);stroke-opacity:1;stroke-miterlimit:10;" d="M 184.894531 150.421875 L 174.515625 167.484375 "/>
<path style="fill:none;stroke-width:1.2;stroke-linecap:butt;stroke-linejoin:miter;stroke:rgb(0%,0%,0%);stroke-opacity:1;stroke-miterlimit:10;" d="M 184.101562 185 L 204.066406 185.460938 "/>
<path style="fill:none;stroke-width:1.2;stroke-linecap:butt;stroke-linejoin:miter;stroke:rgb(0%,0%,0%);stroke-opacity:1;stroke-miterlimit:10;" d="M 204.066406 185.460938 L 214.445312 168.402344 "/>
<path style="fill:none;stroke-width:1.2;stroke-linecap:butt;stroke-linejoin:miter;stroke:rgb(0%,0%,0%);stroke-opacity:1;stroke-miterlimit:10;" d="M 201.089844 181.3125 L 209.390625 167.664062 "/>
<path style="fill:none;stroke-width:1.2;stroke-linecap:butt;stroke-linejoin:miter;stroke:rgb(0%,0%,0%);stroke-opacity:1;stroke-miterlimit:10;" d="M 214.445312 168.402344 L 234.40625 168.859375 "/>
<path style="fill:none;stroke-width:1.2;stroke-linecap:butt;stroke-linejoin:miter;stroke:rgb(0%,0%,0%);stroke-opacity:1;stroke-miterlimit:10;" d="M 204.859375 150.882812 L 214.445312 168.402344 "/>
<path style="fill:none;stroke-width:1.2;stroke-linecap:butt;stroke-linejoin:miter;stroke:rgb(0%,0%,0%);stroke-opacity:1;stroke-miterlimit:10;" d="M 234.40625 168.859375 L 244.785156 151.800781 "/>
<path style="fill:none;stroke-width:1.2;stroke-linecap:butt;stroke-linejoin:miter;stroke:rgb(0%,0%,0%);stroke-opacity:1;stroke-miterlimit:10;" d="M 244.785156 151.800781 L 235.203125 134.28125 "/>
<path style="fill:none;stroke-width:1;stroke-linecap:butt;stroke-linejoin:miter;stroke:rgb(0%,0%,0%);stroke-opacity:1;stroke-miterlimit:10;" d="M 244.785156 151.800781 L 244.785156 151.800781 M 247.726562 152.390625 L 247.753906 151.347656 M 250.667969 152.980469 L 250.71875 150.894531 M 253.609375 153.566406 L 253.683594 150.441406 M 256.554688 154.15625 L 256.648438 149.988281 M 259.496094 154.746094 L 259.613281 149.535156 M 262.4375 155.335938 L 262.578125 149.082031 M 264.667969 155.78125 L 264.832031 148.738281 "/>
<path style="fill:none;stroke-width:1.2;stroke-linecap:butt;stroke-linejoin:miter;stroke:rgb(0%,0%,0%);stroke-opacity:1;stroke-miterlimit:10;" d="M 235.203125 134.28125 L 215.238281 133.824219 "/>
<path style="fill:none;stroke-width:1.2;stroke-linecap:butt;stroke-linejoin:miter;stroke:rgb(0%,0%,0%);stroke-opacity:1;stroke-miterlimit:10;" d="M 215.238281 133.824219 L 204.859375 150.882812 "/>
<path style="fill:none;stroke-width:1.2;stroke-linecap:butt;stroke-linejoin:miter;stroke:rgb(0%,0%,0%);stroke-opacity:1;stroke-miterlimit:10;" d="M 204.859375 150.882812 L 184.894531 150.421875 "/>
<path style="fill:none;stroke-width:1;stroke-linecap:butt;stroke-linejoin:miter;stroke:rgb(0%,0%,0%);stroke-opacity:1;stroke-miterlimit:10;" d="M 204.859375 150.882812 L 204.859375 150.882812 M 203.898438 148.039062 L 202.984375 148.539062 M 202.9375 145.199219 L 201.109375 146.199219 M 201.976562 142.355469 L 199.234375 143.859375 M 201.015625 139.515625 L 197.359375 141.515625 M 200.054688 136.671875 L 195.484375 139.175781 M 199.097656 133.832031 L 193.605469 136.832031 M 198.367188 131.671875 L 192.183594 135.054688 "/>
<path style=" stroke:none;fill-rule:nonzero;fill:rgb(0%,0%,0%);fill-opacity:1;" d="M 184.894531 150.421875 L 174.550781 132.984375 L 169.207031 137.578125 Z M 184.894531 150.421875 "/>
<path style=" stroke:none;fill-rule:nonzero;fill:rgb(100%,100%,100%);fill-opacity:1;" d="M 257.75 146.757812 L 272.75 146.757812 L 272.75 157.757812 L 257.75 157.757812 Z M 257.75 146.757812 "/>
<g style="fill:rgb(100%,0%,0%);fill-opacity:1;">
  <use xlink:href="#glyph0-3" x="257.75" y="155.420898"/>
  <use xlink:href="#glyph0-2" x="265.091797" y="155.420898"/>
</g>
<path style=" stroke:none;fill-rule:nonzero;fill:rgb(100%,100%,100%);fill-opacity:1;" d="M 57.832031 114.6875 L 72.832031 114.6875 L 72.832031 125.6875 L 57.832031 125.6875 Z M 57.832031 114.6875 "/>
<g style="fill:rgb(100%,0%,0%);fill-opacity:1;">
  <use xlink:href="#glyph0-2" x="57.832031" y="123.350586"/>
  <use xlink:href="#glyph0-3" x="64.84668" y="123.350586"/>
</g>
</g>
</svg>

<svg xmlns="http://www.w3.org/2000/svg" xmlns:xlink="http://www.w3.org/1999/xlink" width="300pt" height="300pt" viewBox="0 0 300 300"><defs><symbol overflow="visible"><path d="M.453 1.594v-7.938h4.5v7.938zm.5-.5h3.5v-6.938h-3.5zm0 0"/></symbol><symbol overflow="visible" id="a"><path d="M.89-6.563H2.08l2.906 5.485v-5.484h.86V0H4.656L1.75-5.484V0H.89zm0 0"/></symbol><symbol overflow="visible" id="b"><path d="M.89-6.563h.876v2.688H5v-2.688h.89V0H5v-3.125H1.766V0H.89zm0 0"/></symbol><symbol overflow="visible" id="c"><path d="M3.547-5.953c-.65 0-1.164.242-1.547.72-.375.48-.563 1.13-.563 1.952 0 .835.188 1.49.563 1.967.383.48.898.72 1.547.72.644 0 1.156-.24 1.53-.72.376-.476.564-1.132.564-1.968 0-.822-.187-1.474-.562-1.954-.375-.477-.887-.72-1.53-.72zm0-.734c.914 0 1.648.312 2.203.937.55.617.828 1.438.828 2.47 0 1.042-.277 1.87-.828 2.483-.555.617-1.29.922-2.203.922-.93 0-1.668-.305-2.22-.922C.774-1.41.5-2.237.5-3.28c0-1.033.273-1.853.828-2.47.55-.625 1.29-.938 2.22-.938zm0 0"/></symbol></defs><g><path fill="#fff" d="M0 0h300v300H0z"/><path d="M51.672 171.355m-2.727 1.25l.594.86m-3.32.394l1.186 1.714m-3.914-.46l1.78 2.57m-4.506-1.32l2.375 3.43m-5.1-2.177l2.968 4.285m-5.696-3.035l3.563 5.145m-5.63-4.192l4.01 5.793" stroke="#000" stroke-miterlimit="10" fill="none"/><path d="M51.672 171.355l-1.633-19.902M69.723 179.895l-18.05-8.54M50.04 151.453l16.42-11.363M66.46 140.09l18.052 8.54" stroke-width="1.2" stroke="#000" stroke-miterlimit="10" fill="none"/><path d="M66.46 140.09m.278-2.988l-1.04.085m1.322-3.07l-2.082.168m2.36-3.156l-3.118.253m3.394-3.242l-4.156.34m4.434-3.328l-5.196.426m5.477-3.41l-6.238.512m6.45-2.782l-7.025.58" stroke="#000" stroke-miterlimit="10" fill="none"/><path d="M84.512 148.63l-1.883 20.19 7.022-.578zm0 0"/><path d="M84.512 148.63l16.422-11.364" stroke-width="1.2" stroke="#000" stroke-miterlimit="10" fill="none"/><path d="M86.14 168.53l-8.206 5.68" stroke-width="1.2" stroke="#00f" stroke-miterlimit="10" fill="none"/><path d="M77.934 174.21l-8.21 5.685" stroke-width="1.2" stroke="#000" stroke-miterlimit="10" fill="none"/><path d="M79.14 163.03h14v11h-14zm0 0" fill="#fff"/><g fill="#00f"><use xlink:href="#a" x="79.141" y="171.694"/><use xlink:href="#b" x="86.118" y="171.694"/></g><path d="M100.934 137.266m.277-2.99l-1.038.087m1.316-3.07l-2.078.168m2.36-3.155l-3.122.254m3.4-3.244l-4.157.34m4.434-3.324l-5.195.426m5.472-3.414l-6.235.51m6.445-2.78l-7.023.578" stroke="#000" stroke-miterlimit="10" fill="none"/><path d="M100.934 137.266l18.05 8.54M118.984 145.805l16.418-11.364M123.3 148.53l13.134-9.09M120.613 165.707l-1.63-19.902M135.402 134.44l18.05 8.54M135.402 134.44l-1.63-19.9M153.453 142.98l1.633 19.903M158.3 144.586l1.305 15.922M171.88 135.28l-18.427 7.7M155.086 162.883l-16.422 11.363" stroke-width="1.2" stroke="#000" stroke-miterlimit="10" fill="none"/><path d="M174.516 167.484l-18.618-8.03-1.625 6.858zm0 0"/><path d="M138.664 174.246l-18.05-8.54M138.867 169.145l-14.437-6.833M174.516 167.484L184.102 185M184.895 150.422l-10.38 17.062M184.102 185l19.964.46M204.066 185.46l10.38-17.058M201.09 181.313l8.3-13.65M214.445 168.402l19.96.457M204.86 150.883l9.585 17.52M234.406 168.86l10.38-17.06M244.785 151.8l-9.582-17.52" stroke-width="1.2" stroke="#000" stroke-miterlimit="10" fill="none"/><path d="M244.785 151.8m2.942.59l.027-1.042m2.914 1.632l.05-2.085m2.89 2.67l.076-3.124m2.87 3.716l.094-4.168m2.848 4.758l.117-5.21m2.825 5.8l.14-6.254m2.09 6.7l.164-7.044" stroke="#000" stroke-miterlimit="10" fill="none"/><path d="M235.203 134.28l-19.965-.456M215.238 133.824l-10.38 17.06M204.86 150.883l-19.965-.46" stroke-width="1.2" stroke="#000" stroke-miterlimit="10" fill="none"/><path d="M204.86 150.883m-.962-2.844l-.914.5m-.047-3.34l-1.828 1m.867-3.845l-2.743 1.504m1.782-4.344l-3.657 2m2.695-4.844l-4.57 2.504m3.613-5.344l-5.493 3m4.762-5.16l-6.183 3.383" stroke="#000" stroke-miterlimit="10" fill="none"/><path d="M184.895 150.422l-10.344-17.438-5.343 4.594zm0 0"/><path d="M257.75 146.758h15v11h-15zm0 0" fill="#fff"/><g fill="#f00"><use xlink:href="#c" x="257.75" y="155.421"/><use xlink:href="#b" x="265.092" y="155.421"/></g><path d="M57.832 114.688h15v11h-15zm0 0" fill="#fff"/><g fill="#f00"><use xlink:href="#b" x="57.832" y="123.351"/><use xlink:href="#c" x="64.847" y="123.351"/></g></g></svg>
